images/3234086.svg

<?xml version="1.0" encoding="UTF-8"?>
<svg xmlns="http://www.w3.org/2000/svg" xmlns:xlink="http://www.w3.org/1999/xlink" width="300pt" height="300pt" viewBox="0 0 300 300" version="1.1">
<defs>
<g>
<symbol overflow="visible" id="glyph0-0">
<path style="stroke:none;" d="M 0.59375 2.125 L 0.59375 -8.46875 L 6.59375 -8.46875 L 6.59375 2.125 Z M 1.265625 1.453125 L 5.9375 1.453125 L 5.9375 -7.78125 L 1.265625 -7.78125 Z M 1.265625 1.453125 "/>
</symbol>
<symbol overflow="visible" id="glyph0-1">
<path style="stroke:none;" d="M 1.171875 -8.75 L 2.765625 -8.75 L 6.65625 -1.4375 L 6.65625 -8.75 L 7.796875 -8.75 L 7.796875 0 L 6.203125 0 L 2.328125 -7.3125 L 2.328125 0 L 1.171875 0 Z M 1.171875 -8.75 "/>
</symbol>
<symbol overflow="visible" id="glyph0-2">
<path style="stroke:none;" d="M 4.734375 -7.953125 C 3.867188 -7.953125 3.179688 -7.628906 2.671875 -6.984375 C 2.171875 -6.347656 1.921875 -5.472656 1.921875 -4.359375 C 1.921875 -3.265625 2.171875 -2.394531 2.671875 -1.75 C 3.179688 -1.113281 3.867188 -0.796875 4.734375 -0.796875 C 5.585938 -0.796875 6.265625 -1.113281 6.765625 -1.75 C 7.273438 -2.394531 7.53125 -3.265625 7.53125 -4.359375 C 7.53125 -5.472656 7.273438 -6.347656 6.765625 -6.984375 C 6.265625 -7.628906 5.585938 -7.953125 4.734375 -7.953125 Z M 4.734375 -8.90625 C 5.953125 -8.90625 6.925781 -8.492188 7.65625 -7.671875 C 8.394531 -6.847656 8.765625 -5.742188 8.765625 -4.359375 C 8.765625 -2.984375 8.394531 -1.882812 7.65625 -1.0625 C 6.925781 -0.238281 5.953125 0.171875 4.734375 0.171875 C 3.503906 0.171875 2.519531 -0.238281 1.78125 -1.0625 C 1.039062 -1.882812 0.671875 -2.984375 0.671875 -4.359375 C 0.671875 -5.742188 1.039062 -6.847656 1.78125 -7.671875 C 2.519531 -8.492188 3.503906 -8.90625 4.734375 -8.90625 Z M 4.734375 -8.90625 "/>
</symbol>
<symbol overflow="visible" id="glyph0-3">
<path style="stroke:none;" d="M 7.734375 -8.078125 L 7.734375 -6.828125 C 7.328125 -7.203125 6.898438 -7.476562 6.453125 -7.65625 C 6.003906 -7.84375 5.523438 -7.9375 5.015625 -7.9375 C 4.015625 -7.9375 3.25 -7.628906 2.71875 -7.015625 C 2.1875 -6.398438 1.921875 -5.515625 1.921875 -4.359375 C 1.921875 -3.210938 2.1875 -2.332031 2.71875 -1.71875 C 3.25 -1.101562 4.015625 -0.796875 5.015625 -0.796875 C 5.523438 -0.796875 6.003906 -0.890625 6.453125 -1.078125 C 6.898438 -1.265625 7.328125 -1.539062 7.734375 -1.90625 L 7.734375 -0.671875 C 7.316406 -0.390625 6.875 -0.175781 6.40625 -0.03125 C 5.945312 0.101562 5.460938 0.171875 4.953125 0.171875 C 3.617188 0.171875 2.570312 -0.234375 1.8125 -1.046875 C 1.050781 -1.859375 0.671875 -2.960938 0.671875 -4.359375 C 0.671875 -5.765625 1.050781 -6.875 1.8125 -7.6875 C 2.570312 -8.5 3.617188 -8.90625 4.953125 -8.90625 C 5.472656 -8.90625 5.960938 -8.832031 6.421875 -8.6875 C 6.890625 -8.550781 7.328125 -8.347656 7.734375 -8.078125 Z M 7.734375 -8.078125 "/>
</symbol>
<symbol overflow="visible" id="glyph0-4">
<path style="stroke:none;" d="M 1.125 -9.125 L 2.203125 -9.125 L 2.203125 0 L 1.125 0 Z M 1.125 -9.125 "/>
</symbol>
</g>
</defs>
<g id="surface34837">
<rect x="0" y="0" width="300" height="300" style="fill:rgb(100%,100%,100%);fill-opacity:1;stroke:none;"/>
<path style="fill:none;stroke-width:1.2;stroke-linecap:butt;stroke-linejoin:miter;stroke:rgb(0%,0%,0%);stroke-opacity:1;stroke-miterlimit:10;" d="M 47.910156 235.847656 L 69.191406 216.25 "/>
<path style="fill:none;stroke-width:1.2;stroke-linecap:butt;stroke-linejoin:miter;stroke:rgb(0%,0%,0%);stroke-opacity:1;stroke-miterlimit:10;" d="M 69.191406 216.25 L 82.996094 220.566406 "/>
<path style="fill:none;stroke-width:1.2;stroke-linecap:butt;stroke-linejoin:miter;stroke:rgb(0%,0%,100%);stroke-opacity:1;stroke-miterlimit:10;" d="M 82.996094 220.566406 L 96.800781 224.882812 "/>
<path style="fill:none;stroke-width:1.2;stroke-linecap:butt;stroke-linejoin:miter;stroke:rgb(0%,0%,0%);stroke-opacity:1;stroke-miterlimit:10;" d="M 73.984375 210.617188 L 85.027344 214.070312 "/>
<path style="fill:none;stroke-width:1.2;stroke-linecap:butt;stroke-linejoin:miter;stroke:rgb(0%,0%,100%);stroke-opacity:1;stroke-miterlimit:10;" d="M 85.027344 214.070312 L 96.070312 217.523438 "/>
<path style="fill:none;stroke-width:1.2;stroke-linecap:butt;stroke-linejoin:miter;stroke:rgb(0%,0%,0%);stroke-opacity:1;stroke-miterlimit:10;" d="M 62.859375 188.023438 L 69.191406 216.25 "/>
<path style="fill:none;stroke-width:1.2;stroke-linecap:butt;stroke-linejoin:miter;stroke:rgb(0%,0%,100%);stroke-opacity:1;stroke-miterlimit:10;" d="M 96.800781 224.882812 L 107.441406 215.085938 "/>
<path style="fill:none;stroke-width:1.2;stroke-linecap:butt;stroke-linejoin:miter;stroke:rgb(0%,0%,0%);stroke-opacity:1;stroke-miterlimit:10;" d="M 107.441406 215.085938 L 118.082031 205.285156 "/>
<path style=" stroke:none;fill-rule:nonzero;fill:rgb(100%,100%,100%);fill-opacity:1;" d="M 92.800781 217.882812 L 101.800781 217.882812 L 101.800781 231.882812 L 92.800781 231.882812 Z M 92.800781 217.882812 "/>
<g style="fill:rgb(0%,0%,100%);fill-opacity:1;">
  <use xlink:href="#glyph0-1" x="92.800781" y="229.021484"/>
</g>
<path style="fill:none;stroke-width:1.2;stroke-linecap:butt;stroke-linejoin:miter;stroke:rgb(0%,0%,0%);stroke-opacity:1;stroke-miterlimit:10;" d="M 118.082031 205.285156 L 145.691406 213.917969 "/>
<path style="fill:none;stroke-width:1.2;stroke-linecap:butt;stroke-linejoin:miter;stroke:rgb(0%,0%,0%);stroke-opacity:1;stroke-miterlimit:10;" d="M 122.871094 199.652344 L 144.960938 206.558594 "/>
<path style="fill:none;stroke-width:1.2;stroke-linecap:butt;stroke-linejoin:miter;stroke:rgb(0%,0%,0%);stroke-opacity:1;stroke-miterlimit:10;" d="M 111.75 177.058594 L 118.082031 205.285156 "/>
<path style="fill:none;stroke-width:1.2;stroke-linecap:butt;stroke-linejoin:miter;stroke:rgb(0%,0%,0%);stroke-opacity:1;stroke-miterlimit:10;" d="M 145.691406 213.917969 L 156.332031 204.121094 "/>
<path style="fill:none;stroke-width:1.2;stroke-linecap:butt;stroke-linejoin:miter;stroke:rgb(0%,0%,100%);stroke-opacity:1;stroke-miterlimit:10;" d="M 156.332031 204.121094 L 166.96875 194.320312 "/>
<path style="fill:none;stroke-width:1.2;stroke-linecap:butt;stroke-linejoin:miter;stroke:rgb(0%,0%,100%);stroke-opacity:1;stroke-miterlimit:10;" d="M 166.96875 194.320312 L 163.804688 180.207031 "/>
<path style="fill:none;stroke-width:1.2;stroke-linecap:butt;stroke-linejoin:miter;stroke:rgb(0%,0%,0%);stroke-opacity:1;stroke-miterlimit:10;" d="M 163.804688 180.207031 L 160.640625 166.09375 "/>
<path style="fill:none;stroke-width:1.2;stroke-linecap:butt;stroke-linejoin:miter;stroke:rgb(0%,0%,100%);stroke-opacity:1;stroke-miterlimit:10;" d="M 159.695312 192.988281 L 157.164062 181.699219 "/>
<path style="fill:none;stroke-width:1.2;stroke-linecap:butt;stroke-linejoin:miter;stroke:rgb(0%,0%,0%);stroke-opacity:1;stroke-miterlimit:10;" d="M 157.164062 181.699219 L 154.632812 170.40625 "/>
<path style=" stroke:none;fill-rule:nonzero;fill:rgb(100%,100%,100%);fill-opacity:1;" d="M 162.96875 187.320312 L 171.96875 187.320312 L 171.96875 201.320312 L 162.96875 201.320312 Z M 162.96875 187.320312 "/>
<g style="fill:rgb(0%,0%,100%);fill-opacity:1;">
  <use xlink:href="#glyph0-1" x="162.96875" y="198.458984"/>
</g>
<path style="fill:none;stroke-width:1.2;stroke-linecap:butt;stroke-linejoin:miter;stroke:rgb(0%,0%,0%);stroke-opacity:1;stroke-miterlimit:10;" d="M 160.640625 166.09375 L 146.835938 161.78125 "/>
<path style="fill:none;stroke-width:1.2;stroke-linecap:butt;stroke-linejoin:miter;stroke:rgb(0%,0%,100%);stroke-opacity:1;stroke-miterlimit:10;" d="M 146.835938 161.78125 L 133.03125 157.464844 "/>
<path style="fill:none;stroke-width:1.2;stroke-linecap:butt;stroke-linejoin:miter;stroke:rgb(0%,0%,0%);stroke-opacity:1;stroke-miterlimit:10;" d="M 160.640625 166.09375 L 171.28125 156.296875 "/>
<path style="fill:none;stroke-width:1.2;stroke-linecap:butt;stroke-linejoin:miter;stroke:rgb(100%,0%,0%);stroke-opacity:1;stroke-miterlimit:10;" d="M 171.28125 156.296875 L 181.917969 146.5 "/>
<path style="fill:none;stroke-width:1.2;stroke-linecap:butt;stroke-linejoin:miter;stroke:rgb(0%,0%,100%);stroke-opacity:1;stroke-miterlimit:10;" d="M 133.03125 157.464844 L 122.390625 167.261719 "/>
<path style="fill:none;stroke-width:1.2;stroke-linecap:butt;stroke-linejoin:miter;stroke:rgb(0%,0%,0%);stroke-opacity:1;stroke-miterlimit:10;" d="M 122.390625 167.261719 L 111.75 177.058594 "/>
<path style="fill:none;stroke-width:1.2;stroke-linecap:butt;stroke-linejoin:miter;stroke:rgb(0%,0%,100%);stroke-opacity:1;stroke-miterlimit:10;" d="M 135.511719 164.429688 L 127 172.269531 "/>
<path style="fill:none;stroke-width:1.2;stroke-linecap:butt;stroke-linejoin:miter;stroke:rgb(0%,0%,0%);stroke-opacity:1;stroke-miterlimit:10;" d="M 127 172.269531 L 118.488281 180.105469 "/>
<path style=" stroke:none;fill-rule:nonzero;fill:rgb(100%,100%,100%);fill-opacity:1;" d="M 129.03125 150.464844 L 138.03125 150.464844 L 138.03125 164.464844 L 129.03125 164.464844 Z M 129.03125 150.464844 "/>
<g style="fill:rgb(0%,0%,100%);fill-opacity:1;">
  <use xlink:href="#glyph0-1" x="129.03125" y="161.603516"/>
</g>
<path style="fill:none;stroke-width:1.2;stroke-linecap:butt;stroke-linejoin:miter;stroke:rgb(0%,0%,0%);stroke-opacity:1;stroke-miterlimit:10;" d="M 111.75 177.058594 L 97.945312 172.746094 "/>
<path style="fill:none;stroke-width:1.2;stroke-linecap:butt;stroke-linejoin:miter;stroke:rgb(0%,0%,100%);stroke-opacity:1;stroke-miterlimit:10;" d="M 97.945312 172.746094 L 84.140625 168.429688 "/>
<path style="fill:none;stroke-width:1.2;stroke-linecap:butt;stroke-linejoin:miter;stroke:rgb(0%,0%,100%);stroke-opacity:1;stroke-miterlimit:10;" d="M 84.140625 168.429688 L 73.5 178.226562 "/>
<path style="fill:none;stroke-width:1.2;stroke-linecap:butt;stroke-linejoin:miter;stroke:rgb(0%,0%,0%);stroke-opacity:1;stroke-miterlimit:10;" d="M 73.5 178.226562 L 62.859375 188.023438 "/>
<path style="fill:none;stroke-width:1.2;stroke-linecap:butt;stroke-linejoin:miter;stroke:rgb(0%,0%,100%);stroke-opacity:1;stroke-miterlimit:10;" d="M 84.140625 168.429688 L 80.976562 154.316406 "/>
<path style="fill:none;stroke-width:1.2;stroke-linecap:butt;stroke-linejoin:miter;stroke:rgb(0%,0%,0%);stroke-opacity:1;stroke-miterlimit:10;" d="M 80.976562 154.316406 L 77.808594 140.203125 "/>
<path style=" stroke:none;fill-rule:nonzero;fill:rgb(100%,100%,100%);fill-opacity:1;" d="M 80.140625 161.429688 L 89.140625 161.429688 L 89.140625 175.429688 L 80.140625 175.429688 Z M 80.140625 161.429688 "/>
<g style="fill:rgb(0%,0%,100%);fill-opacity:1;">
  <use xlink:href="#glyph0-1" x="80.140625" y="172.568359"/>
</g>
<path style="fill:none;stroke-width:1.2;stroke-linecap:butt;stroke-linejoin:miter;stroke:rgb(0%,0%,0%);stroke-opacity:1;stroke-miterlimit:10;" d="M 63.875 184.777344 L 50.070312 180.460938 "/>
<path style="fill:none;stroke-width:1.2;stroke-linecap:butt;stroke-linejoin:miter;stroke:rgb(100%,0%,0%);stroke-opacity:1;stroke-miterlimit:10;" d="M 50.070312 180.460938 L 36.265625 176.144531 "/>
<path style="fill:none;stroke-width:1.2;stroke-linecap:butt;stroke-linejoin:miter;stroke:rgb(0%,0%,0%);stroke-opacity:1;stroke-miterlimit:10;" d="M 61.84375 191.273438 L 48.039062 186.957031 "/>
<path style="fill:none;stroke-width:1.2;stroke-linecap:butt;stroke-linejoin:miter;stroke:rgb(100%,0%,0%);stroke-opacity:1;stroke-miterlimit:10;" d="M 48.039062 186.957031 L 34.234375 182.640625 "/>
<path style=" stroke:none;fill-rule:nonzero;fill:rgb(100%,100%,100%);fill-opacity:1;" d="M 25.25 172.394531 L 35.25 172.394531 L 35.25 186.394531 L 25.25 186.394531 Z M 25.25 172.394531 "/>
<g style="fill:rgb(100%,0%,0%);fill-opacity:1;">
  <use xlink:href="#glyph0-2" x="25.25" y="183.533203"/>
</g>
<path style="fill:none;stroke-width:1.2;stroke-linecap:butt;stroke-linejoin:miter;stroke:rgb(0%,0%,0%);stroke-opacity:1;stroke-miterlimit:10;" d="M 77.808594 140.203125 L 99.089844 120.605469 "/>
<path style="fill:none;stroke-width:1.2;stroke-linecap:butt;stroke-linejoin:miter;stroke:rgb(0%,0%,0%);stroke-opacity:1;stroke-miterlimit:10;" d="M 99.089844 120.605469 L 92.757812 92.378906 "/>
<path style="fill:none;stroke-width:1.2;stroke-linecap:butt;stroke-linejoin:miter;stroke:rgb(0%,0%,0%);stroke-opacity:1;stroke-miterlimit:10;" d="M 92.757812 92.378906 L 89.59375 78.265625 "/>
<path style="fill:none;stroke-width:1.2;stroke-linecap:butt;stroke-linejoin:miter;stroke:rgb(0%,0%,100%);stroke-opacity:1;stroke-miterlimit:10;" d="M 89.59375 78.265625 L 86.429688 64.152344 "/>
<path style="fill:none;stroke-width:1.2;stroke-linecap:butt;stroke-linejoin:miter;stroke:rgb(0%,0%,0%);stroke-opacity:1;stroke-miterlimit:10;" d="M 98.765625 88.066406 L 96.234375 76.777344 "/>
<path style="fill:none;stroke-width:1.2;stroke-linecap:butt;stroke-linejoin:miter;stroke:rgb(0%,0%,100%);stroke-opacity:1;stroke-miterlimit:10;" d="M 96.234375 76.777344 L 93.703125 65.488281 "/>
<path style="fill:none;stroke-width:1.2;stroke-linecap:butt;stroke-linejoin:miter;stroke:rgb(0%,0%,0%);stroke-opacity:1;stroke-miterlimit:10;" d="M 85.484375 91.046875 L 82.953125 79.757812 "/>
<path style="fill:none;stroke-width:1.2;stroke-linecap:butt;stroke-linejoin:miter;stroke:rgb(0%,0%,100%);stroke-opacity:1;stroke-miterlimit:10;" d="M 82.953125 79.757812 L 80.417969 68.464844 "/>
<path style=" stroke:none;fill-rule:nonzero;fill:rgb(100%,100%,100%);fill-opacity:1;" d="M 82.429688 57.152344 L 91.429688 57.152344 L 91.429688 71.152344 L 82.429688 71.152344 Z M 82.429688 57.152344 "/>
<g style="fill:rgb(0%,0%,100%);fill-opacity:1;">
  <use xlink:href="#glyph0-1" x="82.429688" y="68.291016"/>
</g>
<path style="fill:none;stroke-width:1.2;stroke-linecap:butt;stroke-linejoin:miter;stroke:rgb(100%,0%,0%);stroke-opacity:1;stroke-miterlimit:10;" d="M 181.917969 146.5 L 195.726562 150.816406 "/>
<path style="fill:none;stroke-width:1.2;stroke-linecap:butt;stroke-linejoin:miter;stroke:rgb(0%,0%,0%);stroke-opacity:1;stroke-miterlimit:10;" d="M 195.726562 150.816406 L 209.53125 155.128906 "/>
<path style=" stroke:none;fill-rule:nonzero;fill:rgb(100%,100%,100%);fill-opacity:1;" d="M 176.917969 139.5 L 186.917969 139.5 L 186.917969 153.5 L 176.917969 153.5 Z M 176.917969 139.5 "/>
<g style="fill:rgb(100%,0%,0%);fill-opacity:1;">
  <use xlink:href="#glyph0-2" x="176.917969" y="150.638672"/>
</g>
<path style="fill:none;stroke-width:1.2;stroke-linecap:butt;stroke-linejoin:miter;stroke:rgb(0%,0%,0%);stroke-opacity:1;stroke-miterlimit:10;" d="M 209.53125 155.128906 L 215.859375 183.355469 "/>
<path style="fill:none;stroke-width:1.2;stroke-linecap:butt;stroke-linejoin:miter;stroke:rgb(0%,0%,0%);stroke-opacity:1;stroke-miterlimit:10;" d="M 216.804688 156.464844 L 221.867188 179.042969 "/>
<path style="fill:none;stroke-width:1.2;stroke-linecap:butt;stroke-linejoin:miter;stroke:rgb(0%,0%,0%);stroke-opacity:1;stroke-miterlimit:10;" d="M 230.808594 135.535156 L 209.53125 155.128906 "/>
<path style="fill:none;stroke-width:1.2;stroke-linecap:butt;stroke-linejoin:miter;stroke:rgb(0%,0%,0%);stroke-opacity:1;stroke-miterlimit:10;" d="M 215.859375 183.355469 L 243.46875 191.988281 "/>
<path style="fill:none;stroke-width:1.2;stroke-linecap:butt;stroke-linejoin:miter;stroke:rgb(0%,0%,0%);stroke-opacity:1;stroke-miterlimit:10;" d="M 243.46875 191.988281 L 264.75 172.390625 "/>
<path style="fill:none;stroke-width:1.2;stroke-linecap:butt;stroke-linejoin:miter;stroke:rgb(0%,0%,0%);stroke-opacity:1;stroke-miterlimit:10;" d="M 240.988281 185.019531 L 258.011719 169.34375 "/>
<path style="fill:none;stroke-width:1.2;stroke-linecap:butt;stroke-linejoin:miter;stroke:rgb(0%,0%,0%);stroke-opacity:1;stroke-miterlimit:10;" d="M 243.46875 191.988281 L 246.636719 206.101562 "/>
<path style="fill:none;stroke-width:1.2;stroke-linecap:butt;stroke-linejoin:miter;stroke:rgb(0%,80%,0%);stroke-opacity:1;stroke-miterlimit:10;" d="M 246.636719 206.101562 L 249.800781 220.214844 "/>
<path style="fill:none;stroke-width:1.2;stroke-linecap:butt;stroke-linejoin:miter;stroke:rgb(0%,0%,0%);stroke-opacity:1;stroke-miterlimit:10;" d="M 264.75 172.390625 L 258.417969 144.164062 "/>
<path style="fill:none;stroke-width:1.2;stroke-linecap:butt;stroke-linejoin:miter;stroke:rgb(0%,0%,0%);stroke-opacity:1;stroke-miterlimit:10;" d="M 258.417969 144.164062 L 230.808594 135.535156 "/>
<path style="fill:none;stroke-width:1.2;stroke-linecap:butt;stroke-linejoin:miter;stroke:rgb(0%,0%,0%);stroke-opacity:1;stroke-miterlimit:10;" d="M 253.628906 149.800781 L 231.539062 142.894531 "/>
<path style=" stroke:none;fill-rule:nonzero;fill:rgb(100%,100%,100%);fill-opacity:1;" d="M 243.800781 213.214844 L 255.800781 213.214844 L 255.800781 227.214844 L 243.800781 227.214844 Z M 243.800781 213.214844 "/>
<g style="fill:rgb(0%,80%,0%);fill-opacity:1;">
  <use xlink:href="#glyph0-3" x="243.800781" y="224.353516"/>
  <use xlink:href="#glyph0-4" x="252.179688" y="224.353516"/>
</g>
</g>
</svg>

<svg xmlns="http://www.w3.org/2000/svg" xmlns:xlink="http://www.w3.org/1999/xlink" width="300pt" height="300pt" viewBox="0 0 300 300"><defs><symbol overflow="visible"><path d="M.594 2.125V-8.47h6V2.126zm.672-.672h4.671V-7.78h-4.67zm0 0"/></symbol><symbol overflow="visible" id="a"><path d="M1.172-8.75h1.594l3.89 7.313V-8.75h1.14V0H6.204L2.328-7.313V0H1.172zm0 0"/></symbol><symbol overflow="visible" id="b"><path d="M4.734-7.953c-.867 0-1.554.324-2.062.97-.5.635-.75 1.51-.75 2.624 0 1.094.25 1.965.75 2.61.508.637 1.195.953 2.062.953.852 0 1.532-.316 2.032-.953.507-.645.765-1.516.765-2.61 0-1.113-.257-1.988-.764-2.624-.5-.645-1.18-.97-2.032-.97zm0-.953c1.22 0 2.192.414 2.922 1.234.74.824 1.11 1.93 1.11 3.313 0 1.376-.37 2.477-1.11 3.298C6.926-.24 5.953.17 4.734.17c-1.23 0-2.214-.41-2.953-1.234C1.04-1.882.673-2.984.673-4.36c0-1.382.367-2.488 1.11-3.312.738-.82 1.722-1.234 2.952-1.234zm0 0"/></symbol><symbol overflow="visible" id="c"><path d="M7.734-8.078v1.25c-.406-.375-.836-.65-1.28-.828-.45-.188-.93-.282-1.438-.282-1 0-1.766.31-2.297.922-.533.618-.798 1.5-.798 2.657 0 1.15.266 2.028.797 2.64.53.618 1.296.923 2.296.923.507 0 .988-.094 1.437-.28.445-.19.875-.462 1.28-.83V-.67c-.417.28-.858.496-1.327.64-.46.134-.945.204-1.453.204-1.336 0-2.383-.406-3.14-1.22-.762-.81-1.14-1.913-1.14-3.31 0-1.408.378-2.517 1.14-3.33.757-.812 1.804-1.218 3.14-1.218.52 0 1.008.074 1.47.22.468.135.905.338 1.31.608zm0 0"/></symbol><symbol overflow="visible" id="d"><path d="M1.125-9.125h1.078V0H1.125zm0 0"/></symbol></defs><g><path fill="#fff" d="M0 0h300v300H0z"/><path d="M47.91 235.848l21.28-19.598M69.19 216.25l13.806 4.316" stroke-width="1.2" stroke="#000" stroke-miterlimit="10" fill="none"/><path d="M82.996 220.566l13.805 4.317" stroke-width="1.2" stroke="#00f" stroke-miterlimit="10" fill="none"/><path d="M73.984 210.617l11.043 3.453" stroke-width="1.2" stroke="#000" stroke-miterlimit="10" fill="none"/><path d="M85.027 214.07l11.043 3.453" stroke-width="1.2" stroke="#00f" stroke-miterlimit="10" fill="none"/><path d="M62.86 188.023l6.33 28.227" stroke-width="1.2" stroke="#000" stroke-miterlimit="10" fill="none"/><path d="M96.8 224.883l10.64-9.797" stroke-width="1.2" stroke="#00f" stroke-miterlimit="10" fill="none"/><path d="M107.44 215.086l10.642-9.8" stroke-width="1.2" stroke="#000" stroke-miterlimit="10" fill="none"/><path d="M92.8 217.883h9v14h-9zm0 0" fill="#fff"/><use xlink:href="#a" x="92.801" y="229.021" fill="#00f"/><path d="M118.082 205.285l27.61 8.633M122.87 199.652l22.09 6.907M111.75 177.06l6.332 28.225M145.69 213.918l10.642-9.797" stroke-width="1.2" stroke="#000" stroke-miterlimit="10" fill="none"/><path d="M156.332 204.12l10.637-9.8M166.97 194.32l-3.165-14.113" stroke-width="1.2" stroke="#00f" stroke-miterlimit="10" fill="none"/><path d="M163.805 180.207l-3.164-14.113" stroke-width="1.2" stroke="#000" stroke-miterlimit="10" fill="none"/><path d="M159.695 192.988l-2.53-11.29" stroke-width="1.2" stroke="#00f" stroke-miterlimit="10" fill="none"/><path d="M157.164 181.7l-2.53-11.294" stroke-width="1.2" stroke="#000" stroke-miterlimit="10" fill="none"/><path d="M162.97 187.32h9v14h-9zm0 0" fill="#fff"/><use xlink:href="#a" x="162.969" y="198.459" fill="#00f"/><path d="M160.64 166.094l-13.804-4.313" stroke-width="1.2" stroke="#000" stroke-miterlimit="10" fill="none"/><path d="M146.836 161.78l-13.805-4.315" stroke-width="1.2" stroke="#00f" stroke-miterlimit="10" fill="none"/><path d="M160.64 166.094l10.64-9.797" stroke-width="1.2" stroke="#000" stroke-miterlimit="10" fill="none"/><path d="M171.28 156.297l10.638-9.797" stroke-width="1.2" stroke="#f00" stroke-miterlimit="10" fill="none"/><path d="M133.03 157.465l-10.64 9.797" stroke-width="1.2" stroke="#00f" stroke-miterlimit="10" fill="none"/><path d="M122.39 167.262l-10.64 9.797" stroke-width="1.2" stroke="#000" stroke-miterlimit="10" fill="none"/><path d="M135.512 164.43L127 172.27" stroke-width="1.2" stroke="#00f" stroke-miterlimit="10" fill="none"/><path d="M127 172.27l-8.512 7.835" stroke-width="1.2" stroke="#000" stroke-miterlimit="10" fill="none"/><path d="M129.03 150.465h9v14h-9zm0 0" fill="#fff"/><use xlink:href="#a" x="129.031" y="161.604" fill="#00f"/><path d="M111.75 177.06l-13.805-4.314" stroke-width="1.2" stroke="#000" stroke-miterlimit="10" fill="none"/><path d="M97.945 172.746L84.14 168.43M84.14 168.43l-10.64 9.797" stroke-width="1.2" stroke="#00f" stroke-miterlimit="10" fill="none"/><path d="M73.5 178.227l-10.64 9.796" stroke-width="1.2" stroke="#000" stroke-miterlimit="10" fill="none"/><path d="M84.14 168.43l-3.163-14.114" stroke-width="1.2" stroke="#00f" stroke-miterlimit="10" fill="none"/><path d="M80.977 154.316l-3.168-14.113" stroke-width="1.2" stroke="#000" stroke-miterlimit="10" fill="none"/><path d="M80.14 161.43h9v14h-9zm0 0" fill="#fff"/><use xlink:href="#a" x="80.141" y="172.568" fill="#00f"/><path d="M63.875 184.777L50.07 180.46" stroke-width="1.2" stroke="#000" stroke-miterlimit="10" fill="none"/><path d="M50.07 180.46l-13.804-4.315" stroke-width="1.2" stroke="#f00" stroke-miterlimit="10" fill="none"/><path d="M61.844 191.273l-13.805-4.316" stroke-width="1.2" stroke="#000" stroke-miterlimit="10" fill="none"/><path d="M48.04 186.957l-13.806-4.316" stroke-width="1.2" stroke="#f00" stroke-miterlimit="10" fill="none"/><path d="M25.25 172.395h10v14h-10zm0 0" fill="#fff"/><use xlink:href="#b" x="25.25" y="183.533" fill="#f00"/><path d="M77.81 140.203l21.28-19.598M99.09 120.605L92.758 92.38M92.758 92.38l-3.164-14.114" stroke-width="1.2" stroke="#000" stroke-miterlimit="10" fill="none"/><path d="M89.594 78.266L86.43 64.152" stroke-width="1.2" stroke="#00f" stroke-miterlimit="10" fill="none"/><path d="M98.766 88.066l-2.532-11.29" stroke-width="1.2" stroke="#000" stroke-miterlimit="10" fill="none"/><path d="M96.234 76.777l-2.53-11.29" stroke-width="1.2" stroke="#00f" stroke-miterlimit="10" fill="none"/><path d="M85.484 91.047l-2.53-11.29" stroke-width="1.2" stroke="#000" stroke-miterlimit="10" fill="none"/><path d="M82.953 79.758l-2.535-11.293" stroke-width="1.2" stroke="#00f" stroke-miterlimit="10" fill="none"/><path d="M82.43 57.152h9v14h-9zm0 0" fill="#fff"/><use xlink:href="#a" x="82.43" y="68.291" fill="#00f"/><path d="M181.918 146.5l13.81 4.316" stroke-width="1.2" stroke="#f00" stroke-miterlimit="10" fill="none"/><path d="M195.727 150.816l13.804 4.313" stroke-width="1.2" stroke="#000" stroke-miterlimit="10" fill="none"/><path d="M176.918 139.5h10v14h-10zm0 0" fill="#fff"/><use xlink:href="#b" x="176.918" y="150.639" fill="#f00"/><path d="M209.53 155.13l6.33 28.225M216.805 156.465l5.062 22.578M230.81 135.535l-21.28 19.594M215.86 183.355l27.61 8.633M243.47 191.988l21.28-19.597M240.988 185.02l17.024-15.676M243.47 191.988l3.167 14.114" stroke-width="1.2" stroke="#000" stroke-miterlimit="10" fill="none"/><path d="M246.637 206.102l3.164 14.113" stroke-width="1.2" stroke="#0c0" stroke-miterlimit="10" fill="none"/><path d="M264.75 172.39l-6.332-28.226M258.418 144.164l-27.61-8.63M253.63 149.8l-22.09-6.905" stroke-width="1.2" stroke="#000" stroke-miterlimit="10" fill="none"/><path d="M243.8 213.215h12v14h-12zm0 0" fill="#fff"/><g fill="#0c0"><use xlink:href="#c" x="243.801" y="224.354"/><use xlink:href="#d" x="252.18" y="224.354"/></g></g></svg>
